lib/img/icons/ui/dashboard.svg

<?xml version="1.0" encoding="utf-8"?>
<!-- Generated by IcoMoon.io -->
<!DOCTYPE svg PUBLIC "-//W3C//DTD SVG 1.1//EN" "http://www.w3.org/Graphics/SVG/1.1/DTD/svg11.dtd">
<svg version="1.1" xmlns="http://www.w3.org/2000/svg" xmlns:xlink="http://www.w3.org/1999/xlink" width="32" height="32" viewBox="0 0 32 32">
<path fill="rgb(0, 0, 0)" d="M5.729 24.857v0zM26.983 24.557h0.003v2.007h-0.003v-2.007zM29.709 7.706c0.389-0.389 0.389-1.025 0-1.414s-1.025-0.389-1.415-0l-10.274 10.274c-0.595-0.351-1.28-0.566-2.020-0.566-2.209 0-4 1.791-4 4s1.791 4 4 4 4-1.791 4-4c0-0.74-0.215-1.425-0.566-2.020l10.274-10.274zM31.579 16c0-1.377-0.196-2.705-0.532-3.976l-1.678 1.677c0.128 0.749 0.21 1.514 0.21 2.299 0 3.38-1.25 6.468-3.301 8.846l1.413 1.425c2.412-2.744 3.887-6.331 3.887-10.271zM26.28 24.846l-2.796-2.819c-0.389-0.392-1.027-0.394-1.418-0.003l-0.006 0.006c-0.387 0.387-0.388 1.022-0.003 1.411l4.215 4.25c0.502-0.442 0.975-0.914 1.417-1.416l-1.418-1.418c0.001-0.002 0.003-0.004 0.004-0.006s0.003-0.003 0.004-0.005zM7.791 5.208c2.283-1.741 5.123-2.787 8.209-2.787v4.579c0 0.55 0.45 1 1 1s1-0.45 1-1v-4.417c2.189 0.329 4.21 1.174 5.931 2.417l1.431-1.431c-2.128-1.605-4.686-2.646-7.463-2.99-0.561-0.069-1.124-0.135-1.702-0.142-0.067-0.001-0.13-0.016-0.197-0.016-3.64 0-6.981 1.259-9.633 3.351-0.527 0.416-1.030 0.861-1.499 1.34-2.335 2.388-3.903 5.522-4.323 9.012-0.066 0.55-0.106 1.108-0.113 1.675-0.001 0.068-0.010 0.133-0.010 0.201 0 3.942 1.476 7.531 3.89 10.275l1.418-1.418c-2.056-2.38-3.309-5.472-3.309-8.857h4.58c0.55 0 1-0.45 1-1s-0.45-1-1-1h-4.416c0.428-2.88 1.753-5.469 3.696-7.463l2.704 2.727c0.389 0.392 1.027 0.394 1.417 0.003l0.006-0.006c0.387-0.387 0.388-1.022 0.003-1.411l-2.619-2.641zM4.311 26.275c0.441 0.501 0.913 0.973 1.414 1.414l4.224-4.224c0.389-0.389 0.389-1.025 0-1.414s-1.025-0.389-1.414 0l-4.223 4.224z"></path>
</svg>

<svg xmlns="http://www.w3.org/2000/svg" width="32" height="32" viewBox="0 0 32 32" class="svg-icon">
    <path d="M5.729 24.857zm21.254-.3h.003v2.007h-.003v-2.007zm2.726-16.851c.389-.389.389-1.025 0-1.414s-1.025-.389-1.415 0L18.02 16.566A3.96 3.96 0 0 0 16 16a4 4 0 1 0 4 4 3.96 3.96 0 0 0-.566-2.02L29.708 7.706zM31.579 16c0-1.377-.196-2.705-.532-3.976l-1.678 1.677c.128.749.21 1.514.21 2.299 0 3.38-1.25 6.468-3.301 8.846l1.413 1.425c2.412-2.744 3.887-6.331 3.887-10.271zm-5.299 8.846l-2.796-2.819a1.003 1.003 0 0 0-1.418-.003l-.006.006a1.004 1.004 0 0 0-.003 1.411l4.215 4.25a15.78 15.78 0 0 0 1.417-1.416l-1.418-1.418.004-.006.004-.005zM7.791 5.208A13.492 13.492 0 0 1 16 2.421V7c0 .55.45 1 1 1s1-.45 1-1V2.583A13.555 13.555 0 0 1 23.931 5l1.431-1.431C23.234 1.964 20.676.923 17.899.579 17.338.51 16.775.444 16.197.437 16.13.436 16.067.421 16 .421a15.5 15.5 0 0 0-9.633 3.351c-.527.416-1.03.861-1.499 1.34a15.526 15.526 0 0 0-4.323 9.012c-.066.55-.106 1.108-.113 1.675-.001.068-.01.133-.01.201 0 3.942 1.476 7.531 3.89 10.275l1.418-1.418A13.506 13.506 0 0 1 2.421 16h4.58c.55 0 1-.45 1-1s-.45-1-1-1H2.585a13.531 13.531 0 0 1 3.696-7.463l2.704 2.727a1.002 1.002 0 0 0 1.417.003l.006-.006a1.004 1.004 0 0 0 .003-1.411L7.792 5.209zm-3.48 21.067c.441.501.913.973 1.414 1.414l4.224-4.224c.389-.389.389-1.025 0-1.414s-1.025-.389-1.414 0l-4.223 4.224z"/>
</svg>
